src/icons/solid/symbols/eye.svg

<svg width="24" height="24" viewBox="0 0 24 24" fill="none" xmlns="http://www.w3.org/2000/svg">
<path d="M12.3828 5.00195C16.2864 5.08948 20.0893 7.86524 22.4131 10.459C23.1956 11.3446 23.1956 12.6676 22.4131 13.543C20.0044 16.2304 16.0098 19.0303 11.9854 19H11.8447C7.89035 19 3.95553 16.1898 1.58691 13.543C0.804366 12.6574 0.804389 11.3344 1.58691 10.459C3.91064 7.86533 7.70389 5.08965 11.625 5.00195H12.3828ZM12.0049 7.37402C9.48583 7.37409 7.43857 9.45078 7.43848 12.0059C7.43848 13.2478 7.9103 14.4087 8.77344 15.2842C9.63653 16.1595 10.7806 16.6377 12.0049 16.6377C13.2292 16.6377 14.3732 16.1595 15.2363 15.2842C16.0995 14.4087 16.5713 13.2478 16.5713 12.0059C16.5712 10.764 16.0994 9.60396 15.2363 8.72852C14.3732 7.85303 13.2293 7.37402 12.0049 7.37402ZM12 9.13379C12.1304 9.1338 12.2612 9.15445 12.3916 9.1748C12.1307 9.44971 11.9697 9.81637 11.9697 10.2236C11.9699 11.0583 12.6323 11.7304 13.4551 11.7305L13.4453 11.7197C13.947 11.7197 14.3784 11.4655 14.6494 11.0889C14.7397 11.3841 14.7998 11.6795 14.7998 11.9951C14.7997 12.7585 14.5092 13.4712 13.9775 14.0107C13.4457 14.5503 12.7428 14.8456 11.9902 14.8457C11.2375 14.8457 10.5349 14.5503 10.0029 14.0107C9.47105 13.4712 9.17975 12.7587 9.17969 11.9951C9.17969 10.4169 10.4443 9.13379 12 9.13379Z" fill="#212121"/>
</svg>

<svg xmlns="http://www.w3.org/2000/svg" width="24" height="24" fill="none" viewBox="0 0 24 24"><path fill="currentColor" d="M12.383 5.002c3.903.087 7.706 2.863 10.03 5.457a2.32 2.32 0 0 1 0 3.084C20.004 16.23 16.01 19.03 11.985 19h-.14c-3.955 0-7.89-2.81-10.258-5.457a2.32 2.32 0 0 1 0-3.084c2.324-2.594 6.117-5.37 10.038-5.457zm-.378 2.372c-2.52 0-4.566 2.077-4.567 4.632a4.63 4.63 0 0 0 1.335 3.278 4.5 4.5 0 0 0 3.232 1.354 4.5 4.5 0 0 0 3.231-1.354 4.63 4.63 0 0 0 1.335-3.278 4.63 4.63 0 0 0-1.335-3.277 4.5 4.5 0 0 0-3.231-1.355M12 9.134c.13 0 .261.02.392.04a1.52 1.52 0 0 0-.422 1.05c0 .834.662 1.506 1.485 1.506l-.01-.01a1.48 1.48 0 0 0 1.204-.631c.09.295.15.59.15.906 0 .764-.29 1.476-.822 2.016a2.77 2.77 0 0 1-1.987.835 2.77 2.77 0 0 1-1.987-.835 2.85 2.85 0 0 1-.823-2.016c0-1.578 1.264-2.861 2.82-2.861"/></svg>
